X: 1
T: la Valse des Jeunes Filles
O: trad. Qu\'ebec
R: waltz
Z: 2012 John Chambers <jc:trillian.mit.edu>
M: 3/4
L: 1/8
K: D
dc BA |\
"D"F2 FE DE | F2 dc BA | F2 FE DF | "Em"G3 FGA |\
"G"B2 BA GF | "Em"E3 FGA | "A7"BA Bc BA |1 "D"F2 :|2 "D"d2 ||
|: DF Ad |\
"A7"c2 cB AB | "D"DF BF AF | "A"EA Ec Ec | "D"d2 DF Ad |\
"A7"c2 cB AB | "D"DF BF AF | "A"EA Ec Ec | "D"d2 :|
